X: 60
T: Shule Aroon - 2nd Setting   #2
R: air
%S: s:3 b:12(4+4+4)
B: O'Neill's 1850 #60
Q: "Plaintively"
O: J.O'Neill
Z: 1999 John Chambers <jc@trillian.mit.edu>
N: Compacted by using labels and play order [JC]
P: Play AB CB
M: C
L: 1/8
K: Am
"^A"[|  AB   | c2 c2 B2 B2 | (A>B) AG E3 G | G2 ({B}A>G) (GE) (cB) | A3 G E2 |]
"^B"[| (FE)  | (E>F) (ED) C2 (CD) | (EG) (AB) c2 (cd) | (ed) (cB) (cB) A^G | A4- "^fine"A2 |]
"^C"[|  z2   | c4 B4 | A>B AG E2 z2 | G3 A (GE) (cB) | A3 G "->B"E3 |]
